icon-themes/sifr_svg/cmd/sc_morphing.svg

<svg viewBox="0 0 16 16" xmlns="http://www.w3.org/2000/svg"><path d="m10.5 1a4.5 4.5 0 0 0 -4.2363281 3h-.2636719c-1.108 0-2 .892-2 2v1h-3v8h8v-3h1c1.108 0 2-.892 2-2v-.2636719a4.5 4.5 0 0 0 3-4.2363281 4.5 4.5 0 0 0 -4.5-4.5zm-.064453 2a2.5 2.5 0 0 1 .064453 0 2.5 2.5 0 0 1 2.5 2.5 2.5 2.5 0 0 1 -1 2v-1.5c0-1.108-.892-2-2-2h-1.5a2.5 2.5 0 0 1 1.935547-1zm-4.695547 3h4.26v4h-1v-3h-3.26l.0002344-1zm-2.74 3h4v4h-4z" fill="#555753"/></svg>

<svg xmlns="http://www.w3.org/2000/svg" viewBox="0 0 16 16">
  <path
     style="fill:#555753"
     d="M 10.5 1 A 4.5 4.5 0 0 0 6.2636719 4 L 6 4 C 4.892 4 4 4.892 4 6 L 4 7 L 1 7 L 1 15 L 9 15 L 9 12 L 10 12 C 11.108 12 12 11.108 12 10 L 12 9.7363281 A 4.5 4.5 0 0 0 15 5.5 A 4.5 4.5 0 0 0 10.5 1 z M 10.435547 3 A 2.5 2.5 0 0 1 10.5 3 A 2.5 2.5 0 0 1 13 5.5 A 2.5 2.5 0 0 1 12 7.5 L 12 6 C 12 4.892 11.108 4 10 4 L 8.5 4 A 2.5 2.5 0 0 1 10.435547 3 z M 5.74 6 L 10 6 L 10 10 L 9 10 L 9 7 L 5.74 7 L 5.7402344 6 z M 3 9 L 7 9 L 7 13 L 3 13 L 3 9 z "
     />
</svg>
